X:1
T:Title
%%score { ( 1 3 ) | ( 2 4 ) }
L:1/8
Q:1/4=116
M:2/2
K:Eb
V:1 treble nm="Grand Piano"
V:3 treble 
V:2 bass 
V:4 bass 
V:1
 B4 B4 | B4 [CFA]2 [A,CF]2 | [G,B,E]2 [B,EG]2 [A,DF]2 D2 | z4 E4 | c4 c4 | c4 A2 F2 | E2 G2 F2 C2 | %7
w: Chas.~H.~Gabriel,~Jr. *|||||||
 D4 E4 | F4 [EF]4 | [DB]4 [DB]2 [DG]2 | =A2 F2 G2 =E2 | z4 F4 | f4 e4 | d4 [Gd]2 [Gc]2 | %14
w: |||||||
 B2 d2 c2 =A2 | B2- [EB]2 [FB]4 | B4 B4 | B4 z4 | [G,B,E]2 [B,EG]2 [A,DF]2 [A,D]2 | %19
w: |||||
 [G,E]4- [G,_DE]4 | .C4 d4 | e4 E2 [EF]2 | [EG]2 [EB]2 [DA]2 [B,D]2 | [G,B,E]8 |] %24
w: |||||
V:2
 [E,G,E]4 [F,A,D]4 | [G,B,E]4 A,,2 A,,2 | B,,2 B,,2 B,,2 [B,,A,B,]2 | [E,G,B,]4 [F,A,]2 G,2 | %4
 [A,E]4 [G,B,=E]4 | [F,A,F]4 [F,CF]2 [F,A,C]2 | [F,=A,C]2 [F,A,E]2 [F,A,C]2 [=A,,F,]2 | %7
 [B,,F,B,]4 [C,F,=A,]4 | [D,B,]4 [C,=A,]4 | [B,,B,]4 [B,,G,]2 [B,,B,]2 | %10
 [C,F,C]2 [C,=A,C]2 [C,B,C]2 [C,B,C]2 | [F,=A,C]4 [G,B,]2 A,2 | [B,DF]4 [A,CF]4 | %13
 [B,F]4[K:bass] [E,B,]2 [E,E]2 | [F,DF]2 [F,B,F]2 [F,=A,E]2 [F,CE]2 | z2 G,2 [B,,A,]4 | %16
 [E,G,E]4 [F,A,D]4 | .[G,B,E]4 A,,2 A,,2 | B,,2 B,,2 B,,2 =B,,2 | C,4 B,,4 | %20
 [A,,A,]2 A,2[K:treble] [A,F]4 | [G,B,E]4[K:bass] [C,G,]2 [=B,,=A,]2 | %22
 [B,,B,]2 [B,,G,]2 [B,,F,]2 [B,,A,]2 | [E,,E,]8 |] %24
V:3
 x8 | x8 | x8 | E4 z2 B,2 | x8 | x8 | x8 | x8 | x8 | x8 | x8 | F4 z2 C2 | x8 | x8 | x8 | %15
 .[B,D]4 z4 | x8 | z2 _D2 [CFA]2 [A,CF]2 | x8 | C4 z4 | c2- [Ec]2 z2 B,2 | x8 | x8 | x8 |] %24
V:4
 x8 | x8 | x8 | x8 | x8 | x8 | x8 | x8 | x8 | x8 | x8 | x8 | x8 | x4[K:bass] x4 | x8 | B,,4 z4 | %16
 x8 | x8 | x8 | x8 | x4[K:treble] x4 | x4[K:bass] x4 | x8 | x8 |] %24

